X: 4014
T: Blackwater, The
R: polka
M: 2/4
K: Gmajor
g2|:fe fe|fe df|fe fe|d2 ef
g2 f2|ed Be|dB AB|1 G2 Gg:|2 G2 GA||
|:B>A Bd|c>B ce|d>c dg|f/g/a g2
e/d/e/f/ ge|ed Bd|cd/c/ BA|1 G2 GA:|2 G2 G2||

